assets/img/braze_icons/settings-02.svg

<svg fill="none" height="24" viewBox="0 0 24 24" width="24" xmlns="http://www.w3.org/2000/svg"><path clip-rule="evenodd" d="m9.74225 21.5541-.65252-1.4459c-.23249-.516-.62513-.9461-1.12143-1.2283-.49659-.2822-1.07107-.4025-1.64122-.3435l-1.59655.1675c-.47521.0492-.95472-.0383-1.38051-.252-.42579-.2136-.77961-.5443-1.01867-.9519-.23912-.4076-.35304-.8748-.32794-1.3449.0251-.4702.18815-.923.46936-1.3037l.94528-1.2796c.33711-.4568.51865-1.007.51854-1.5718.00011-.5648-.18143-1.115-.51854-1.5718l-.94528-1.27965c-.28121-.38062-.44426-.83347-.46936-1.30361s.08882-.93735.32794-1.34494c.23882-.40784.5926-.73866 1.01845-.95235s.90548-.30107 1.38073-.25154l1.60152.16745c.57014.05899 1.14462-.06123 1.64121-.34345.49445-.28303.88528-.71302 1.11647-1.22833l.65252-1.44589c.19397-.4304.51055-.7961.91125-1.05275.4008-.25665.8685-.393217 1.3465-.39314.478-.000077.9457.13649 1.3465.39314.4007.25665.7173.62235.9113 1.05275l.6574 1.44589c.2312.51531.622.9453 1.1165 1.22833.4966.28222 1.0711.40244 1.6412.34345l1.5966-.16745c.4752-.04953.9548.03785 1.3807.25154.4258.21369.7796.54451 1.0184.95235.2392.40759.3531.8748.328 1.34494s-.1882.92299-.4694 1.30361l-.9453 1.27965c-.3371.4568-.5186 1.007-.5185 1.5718-.0029.5663.177 1.1188.5136 1.5779l.9453 1.2797c.2812.3806.4442.8334.4693 1.3036.0251.4701-.0888.9373-.3279 1.3449-.2388.4079-.5926.7387-1.0185.9524-.4258.2137-.9054.301-1.3807.2515l-1.5965-.1674c-.5702-.059-1.1447.0612-1.6413.3434-.4934.2814-.8842.7092-1.1164 1.2222l-.6525 1.4459c-.194.4304-.5106.7961-.9113 1.0528-.4008.2566-.8685.3932-1.3465.3931-.478.0001-.9457-.1365-1.3465-.3931-.4007-.2567-.71728-.6224-.91125-1.0528zm5.25775-9.5541c0 1.6569-1.3431 3-3 3s-3-1.3431-3-3 1.3431-3 3-3 3 1.3431 3 3z" fill="#801ed7" fill-rule="evenodd"/></svg>

<svg width="24" height="24" viewBox="0 0 24 24" fill="none" xmlns="http://www.w3.org/2000/svg">
<path fill-rule="evenodd" clip-rule="evenodd" d="M9.74225 21.5541L9.08973 20.1082C8.85724 19.5922 8.4646 19.1621 7.9683 18.8799C7.47171 18.5977 6.89723 18.4774 6.32708 18.5364L4.73053 18.7039C4.25532 18.7531 3.77581 18.6656 3.35002 18.4519C2.92423 18.2383 2.57041 17.9076 2.33135 17.5C2.09223 17.0924 1.97831 16.6252 2.00341 16.1551C2.02851 15.6849 2.19156 15.2321 2.47277 14.8514L3.41805 13.5718C3.75516 13.115 3.9367 12.5648 3.93659 12C3.9367 11.4352 3.75516 10.885 3.41805 10.4282L2.47277 9.14855C2.19156 8.76793 2.02851 8.31508 2.00341 7.84494C1.97831 7.3748 2.09223 6.90759 2.33135 6.5C2.57017 6.09216 2.92395 5.76134 3.3498 5.54765C3.77565 5.33396 4.25528 5.24658 4.73053 5.29611L6.33205 5.46356C6.90219 5.52255 7.47667 5.40233 7.97326 5.12011C8.46771 4.83708 8.85854 4.40709 9.08973 3.89178L9.74225 2.44589C9.93622 2.01549 10.2528 1.64979 10.6535 1.39314C11.0543 1.13649 11.522 0.999923 12 1C12.478 0.999923 12.9457 1.13649 13.3465 1.39314C13.7472 1.64979 14.0638 2.01549 14.2578 2.44589L14.9152 3.89178C15.1464 4.40709 15.5372 4.83708 16.0317 5.12011C16.5283 5.40233 17.1028 5.52255 17.6729 5.46356L19.2695 5.29611C19.7447 5.24658 20.2243 5.33396 20.6502 5.54765C21.076 5.76134 21.4298 6.09216 21.6686 6.5C21.9078 6.90759 22.0217 7.3748 21.9966 7.84494C21.9715 8.31508 21.8084 8.76793 21.5272 9.14855L20.5819 10.4282C20.2448 10.885 20.0633 11.4352 20.0634 12C20.0605 12.5663 20.2404 13.1188 20.577 13.5779L21.5223 14.8576C21.8035 15.2382 21.9665 15.691 21.9916 16.1612C22.0167 16.6313 21.9028 17.0985 21.6637 17.5061C21.4249 17.914 21.0711 18.2448 20.6452 18.4585C20.2194 18.6722 19.7398 18.7595 19.2645 18.71L17.668 18.5426C17.0978 18.4836 16.5233 18.6038 16.0267 18.886C15.5333 19.1674 15.1425 19.5952 14.9103 20.1082L14.2578 21.5541C14.0638 21.9845 13.7472 22.3502 13.3465 22.6069C12.9457 22.8635 12.478 23.0001 12 23C11.522 23.0001 11.0543 22.8635 10.6535 22.6069C10.2528 22.3502 9.93622 21.9845 9.74225 21.5541ZM15 12C15 13.6569 13.6569 15 12 15C10.3431 15 9 13.6569 9 12C9 10.3431 10.3431 9 12 9C13.6569 9 15 10.3431 15 12Z" fill="#801ED7"/>
</svg>
